24x24/actions/stock_leave-fullscreen.svg

<svg xmlns="http://www.w3.org/2000/svg" viewBox="0 0 24 24"><path style="fill:currentColor;fill-opacity:1;stroke:none;color:#5d656b" d="m10 4 2 2 2-2h-4zM7 7v10h10V7H7zm-3 3v4l2-2-2-2zm4 0h8v6H8v-6zm12 0-2 2 2 2v-4zm-8 8-2 2h4l-2-2z"/></svg>

<svg xmlns="http://www.w3.org/2000/svg" viewBox="0 0 24 24">
  <defs id="defs3051">
    <style type="text/css" id="current-color-scheme">
      .ColorScheme-Text {
        color:#5d656b;
      }
      </style>
  </defs>
 <path style="fill:currentColor;fill-opacity:1;stroke:none" 
     d="M 10 4 L 12 6 L 14 4 L 10 4 z M 7 7 L 7 10 L 7 16 L 7 17 L 17 17 L 17 16 L 17 7 L 8 7 L 7 7 z M 4 10 L 4 14 L 6 12 L 4 10 z M 8 10 L 16 10 L 16 16 L 8 16 L 8 10 z M 20 10 L 18 12 L 20 14 L 20 10 z M 12 18 L 10 20 L 14 20 L 12 18 z "
     class="ColorScheme-Text"
     />
</svg>
